X:1
T:Det norske FLag
T:Det norske Flag
T:Lars Møller-Ibsen
T:C. N. Schwach
C:Lars Møller-Ibsen
Z:C. N. Schwach
%%score [ 1 2 3 4 ]
L:1/8
Q:1/4=92
M:4/4
K:Bb
V:1 treble nm="Soprano"
V:2 treble nm="Alto"
V:3 treble-8 nm="Tenor"
V:4 bass nm="Bass"
V:1
"^Allegro Moderato.\nTempi di Marcia.\n"!mf! F | B2 c3/2 c/ d2 B F | e2 d2 c3 d | %3
w: 1.Mens|Nord- ha- vet bru- ser mod|fjeld- byg'd Strand, og|
w: 2.Du|Blom- ster af Pal- men paa|Fri- heds Grund! Skjön|
w: 3.Fra|Him- len faldt Da- ne- brogs-|fa- nen ned, Blev|
 B2 A3/2 A/ G2 c3/2 c/ | (B2 A2) B2 z F |!<(! F2 G A B2 d3/2!<)! d/ | c2 B2 A3!f! c | %7
w: stol- te Er- in- drin- ger|væk- * ker, om|Fæ- dre- nes Ry, som til|fjer- ne Land det|
w: est du at sku- e tre-|far- * vet; Det|hvi- de- ne Kors i den|rö- de Bund, Det|
w: Tvil- ling- lands- snek- ker- nes|Smyk- * ke, Og|stod gjen- nem Sek- ler i|Krig og Fred om-|
 f2 A B c2 F3/2 G/ | (A2 G2) F2 z |:!mf! F | c3 B!<(! (A>B) c d!<)! | e2 d2 c2 z!f! f | %12
w: bar paa de nor- dis- ke|Snek- * ker.|Op|Nord- mænd sjun- * ger til|Har- pens Slag en|
w: har du af Da- ne- brog|ar- * vet;|Men|Hjer- te- bla- * det, det|mör- ke- blaa, Af|
w: straa- let af Hæ- der og|Lyk- * ke.|O|Flag for Nor- * rig stand|e- vig saa Mist|
 f2 (d3/2 d/) (d>c) B c | d2 c2 B2 z :| %14
w: Sang for _ Nor- * ri- ges|un- ge Flag.|
w: Fri- he- dens Marv _ maat- te|först ud- gaa.|
w: al- drig dit Hjer- * te- blads|höi- e Blaa!|
V:2
!mf! F | D2 F3/2 F/ F2 F F | F2 F2 F3 D | D2 D3/2 D/ B,2 G3/2 G/ | F4 F2 z D | %5
w: 1.Mens|Nord- ha- vet bru- ser mod|fjeld- byg'd Strand, og|stol- te Er- in- drin- ger|væk- ker, om|
w: 2.Du|Blom- ster af Pal- men paa|Fri- heds Grund! Skjön|est du at sku- e tre-|far- vet; Det|
w: 3.Fra|Him- len faldt Da- ne- brogs-|fa- nen ned, Blev|Tvil- ling- lands- snek- ker- nes|Smyk- ke, Og|
!<(! D2 =E ^F G2 G3/2!<)! G/ | G2 =E2 =F3!f! E | F2 F F F2 D3/2 F/ | (F2 =E2) F2 z |:!mf! F | %10
w: Fæ- dre- nes Ry, som til|fjer- ne Land det|bar paa de nor- dis- ke|Snek- * ker.|Op|
w: hvi- de- ne Kors i den|rö- de Bund, Det|har du af Da- ne- brog|ar- * vet;|Men|
w: stod gjen- nem Sek- ler i|Krig og Fred om-|straa- let af Hæ- der og|Lyk- * ke.|O|
 E3 D!<(! F2 F F!<)! | F2 F2 F2 z!f! A | B2 (^F3/2 F/) G2 G G | =F2 E2 D2 z :| %14
w: Nord- mænd sjun- ger til|Har- pens Slag en|Sang for _ Nor- ri- ges|un- ge Flag.|
w: Hjer- te- bla- det, det|mör- ke- blaa, Af|Fri- he- dens Marv maat- te|först ud- gaa.|
w: Flag for Nor- rig stand|e- vig saa Mist|al- drig dit Hjer- te- blads|höi- e Blaa!|
V:3
!mf! F | F2 A3/2 A/ B2 d d | c2 B2 A3 A | G2 =F3/2 F/ B2 e3/2 e/ | (d2 c2) d2 z B | %5
w: 1.Mens|Nord- ha- vet bru- ser mod|fjeld- byg'd Strand, og|stol- te Er- in- drin- ger|væk- * ker, om|
w: 2.Du|Blom- ster af Pal- men paa|Fri- heds Grund! Skjön|est du at sku- e tre-|far- * vet; Det|
w: 3.Fra|Him- len faldt Da- ne- brogs-|fa- nen ned, Blev|Tvil- ling- lands- snek- ker- nes|Smyk- * ke, Og|
!<(! d2 d c B2 B3/2!<)! B/ | c2 c2 c3!f! B | c2 d d c2 B3/2 d/ | (c2 B2) A2 z |:!mf! F | %10
w: Fæ- dre- nes Ry, som til|fjer- ne Land det|bar paa de nor- dis- ke|Snek- * ker.|Op|
w: hvi- de- ne Kors i den|rö- de Bund, Det|har du af Da- ne- brog|ar- * vet;|Men|
w: stod gjen- nem Sek- ler i|Krig og Fred om-|straa- let af Hæ- der og|Lyk- * ke.|O|
 A3 B!<(! (c>d) A B!<)! | A2 B2 A2 z!f! c | d2 (c3/2 c/) B2 B B | B2 A2 B2 z :| %14
w: Nord- mænd sjun- * ger til|Har- pens Slag en|Sang for _ Nor- ri- ges|un- ge Flag.|
w: Hjer- te- bla- * det, det|mör- ke- blaa, Af|Fri- he- dens Marv maat- te|först ud- gaa.|
w: Flag for Nor- * rig stand|e- vig saa Mist|al- drig dit Hjer- te- blads|höi- e Blaa!|
V:4
!mf! F, | B,,2 F,3/2 F,/ B,2 B, B, | A,2 B,2 F,3 ^F, | G,2 D,3/2 D,/ E,2 C,3/2 C,/ | %4
w: 1.Mens|Nord- ha- vet bru- ser mod|fjeld- byg'd Strand, og|stol- te Er- in- drin- ger|
w: 2.Du|Blom- ster af Pal- men paa|Fri- heds Grund! Skjön|est du at sku- e tre-|
w: 3.Fra|Him- len faldt Da- ne- brogs-|fa- nen ned, Blev|Tvil- ling- lands- snek- ker- nes|
 (F,2 F,,2) B,,2 z B, |!<(! B,2 B, A, G,2 F,3/2!<)! F,/ | =E,2 C,2 F,3!f! G, | %7
w: væk- * ker, om|Fæ- dre- nes Ry, som til|fjer- ne Land det|
w: far- * vet; Det|hvi- de- ne Kors i den|rö- de Bund, Det|
w: Smyk- * ke, Og|stod gjen- nem Sek- ler i|Krig og Fred om-|
 A,2 D, D, A,,2 B,,3/2 B,,/ | C,4 F,,2 z |:!mf! F, | F,3 F,!<(! F,2 F, F,!<)! | %11
w: bar paa de nor- dis- ke|Snek- ker.|Op|Nord- mænd sjun- ger til|
w: har du af Da- ne- brog|ar- vet;|Men|Hjer- te- bla- det, det|
w: straa- let af Hæ- der og|Lyk- ke.|O|Flag for Nor- rig stand|
 F,2 B,2 F,2 z!f! E, | D,2 (D,3/2 D,/) E,2 E, =E, | F,2 F,2 B,,2 z :| %14
w: Har- pens Slag en|Sang for _ Nor- ri- ges|un- ge Flag.|
w: mör- ke- blaa, Af|Fri- he- dens Marv maat- te|först ud- gaa.|
w: e- vig saa Mist|al- drig dit Hjer- te- blads|höi- e Blaa!|

